!!!!SEGMENT: pl-kk--kk-i-1--006-002_morales-cristobal-de--missa-ave-maria-et-in-terra.krn
!!!cenid: 15xx:679
!!!COM: Morales, Cristóbal de
!!!COM-rismid: pe30002254
!!!CDT:
!!!CNT:
!!!OPR: [Missa] Ave Maria
!!!OTL: Et in terra
!!!OMV: 002
!!!PDT:
!!!AGN:
!!!SMS-siglum: PL-Kk
!!!SMS-shelfmark: Kk.I.1
!!!SMS-shelfwork: 006-002 M
!!!SMS-variant:
!!!SMS-altvar:
!!!NIFC-rismid: 300257960
!!!URL-scan: http://repozytorium.nifc.pl/skany/pl-kk-nut--i-1
!!!ONB-nifc: UWAGA: Cantus (s. 41v-52v, skan 0044-0055), Altus (s. 43r-52r, skan 0235-0244), Tenor (s. 42r-51r, skan 0430-0439), Bassus (s. 40v-50v, skan 0602-0612). Części Mszy: 1. Kyrie, 2. Et in terra, 3. Patrem, 4. Sanctus, 5. Agnus Dei
**kern	**text	**kern	**text	**kern	**text	**kern	**text
*part4	*part4	*part3	*part3	*part2	*part2	*part1	*part1
*staff4	*staff4	*staff3	*staff3	*staff2	*staff2	*staff1	*staff1
*Iempty	*	*Itenor	*	*Iempty	*	*Iempty	*
*I"BASSVS	*	*I"TENOR	*	*I"ALTVS	*	*I"CANTVS	*
*I'B	*	*I'T	*	*I'A	*	*I'C	*
*M2/1	*	*M2/1	*	*M2/1	*	*M2/1	*
*met(C|)	*	*met(C|)	*	*	*	*met(C|)	*
*clefF4	*	*clefC4	*	*clefC4	*	*clefC3	*
*k[b-]	*	*k[b-]	*	*k[b-]	*	*k[b-]	*
*F:	*	*F:	*	*F:	*	*F:	*
=1-	=1-	=1-	=1-	=1-	=1-	=1-	=1-
!	!	!LO:TX:t=P:problem=kreska pseudotaktowa	!	!	!	!	!
00r	.	00r	.	1B-\	Et	00r	.
!	!	!	!	!LO:TX:t=P:problem=kreska pseudotaktowa	!	!	!
.	.	.	.	1B-\	in	.	.
=2-	=2-	=2-	=2-	=2-	=2-	=2-	=2-
!	!	!	!	!	!	!LO:TX:a:t=14	!
.	.	.	.	1.F/	ter-	.	.
!	!	!	!	!LO:TX:t=P:problem=kreska pseudotaktowa	!	!	!
.	.	.	.	2G/	-ra	.	.
=3-	=3-	=3-	=3-	=3-	=3-	=3-	=3-
!LO:TX:t=P:problem=kreska pseudotaktowa	!	!	!	!	!	!	!
00r	.	1B-\	Et	2.G/	pax	00r	.
!	!	!	!	!LO:TX:t=P:problem=kreska pseudotaktowa	!	!	!
.	.	.	.	4A/	.	.	.
!	!	!LO:TX:t=P:problem=kreska pseudotaktowa	!	!	!	!	!
.	.	1B-\	in	4B-/	.	.	.
.	.	.	.	4c/	.	.	.
.	.	.	.	1d\	.	.	.
=4-	=4-	=4-	=4-	=4-	=4-	=4-	=4-
.	.	1.F/	ter-	.	.	.	.
.	.	.	.	4c\	.	.	.
!	!	!	!	!LO:TX:t=P:problem=kreska pseudotaktowa	!	!	!
.	.	.	.	4B-\	.	.	.
.	.	.	.	4c\	.	.	.
.	.	.	.	4d\	.	.	.
!	!	!LO:TX:t=P:problem=kreska pseudotaktowa	!	!LO:TX:t=P:problem=kreska pseudotaktowa	!	!	!
.	.	2G/	-ra	2e\	.	.	.
=5-	=5-	=5-	=5-	=5-	=5-	=5-	=5-
1B-\	Et	2.G/	pax	2d\	.	00r	.
.	.	.	.	2.G/	ho-	.	.
!	!	!LO:TX:t=P:problem=kreska pseudotaktowa	!	!	!	!	!
.	.	4A/	.	.	.	.	.
1B-\	in	4B-/	.	.	.	.	.
*	*	*	*	*custos:B-	*	*	*
.	.	4c\	.	4A/	.	.	.
!	!	!	!	!LO:LB:g=original	!	!	!
.	.	1d\	ho-	1B-\	-mi-	.	.
=6-	=6-	=6-	=6-	=6-	=6-	=6-	=6-
1.F\	ter-	.	.	.	.	.	.
.	.	4c\	.	4A/	.	.	.
!	!	!LO:TX:t=P:problem=kreska pseudotaktowa	!	!LO:TX:t=P:problem=kreska pseudotaktowa	!	!	!
.	.	4B-\	.	4G/	.	.	.
.	.	4c\	.	2A/	.	.	.
.	.	4d\	.	.	.	.	.
!LO:TX:t=P:problem=kreska pseudotaktowa	!	!	!	!	!	!	!
2G\	-ra	2.e\	.	2G/	.	.	.
=7-	=7-	=7-	=7-	=7-	=7-	=7-	=7-
!	!	!	!	!	!	!LO:TX:t=P:problem=kreska pseudotaktowa	!
2.G\	pax-	.	.	2.B-\	.	0r	.
.	.	4d\	-mi-	.	.	.	.
.	.	1d\	.	.	.	.	.
!	!	!	!	!LO:TX:t=P:problem=kreska pseudotaktowa	!	!	!
4F\	.	.	.	4A/	.	.	.
2E-X\	-ho-	.	.	1G/	-ni-	.	.
*custos:D	*	*custos:d	*	*	*	*	*
!LO:TX:t=P:problem=kreska pseudotaktowa	!	!LO:TX:t=P:problem=kreska pseudotaktowa	!	!	!	!	!
2E-\	-mi-	2c\	-ni-	.	.	.	.
!LO:LB:g=original	!	!LO:LB:g=original	!	!	!	!	!
=8-	=8-	=8-	=8-	=8-	=8-	=8-	=8-
!	!	!LO:TX:t=P:problem=kreska pseudotaktowa	!	!LO:TX:t=P:problem=kreska pseudotaktowa	!	!	!
0D\	-ni-	0d\	-bus,	1A\	-bus;	1f\	Bo-
!	!	!	!	!	!	!LO:TX:t=P:problem=kreska pseudotaktowa	!
.	.	.	.	2r	.	1f\	-ne
.	.	.	.	1A\	bo-	.	.
=9-	=9-	=9-	=9-	=9-	=9-	=9-	=9-
!LO:TX:t=P:problem=kreska pseudotaktowa	!	!	!	!	!	!	!
1F\	-bus	2r	.	.	.	1.c\	.
!	!	!LO:TX:t=P:problem=kreska pseudotaktowa	!	!LO:TX:t=P:problem=kreska pseudotaktowa	!	!	!
.	.	2A/	bo-	2F/	-ne	.	.
2Eny\	bo-	2G/	-ne	2G/	uo-	.	.
!	!	!	!	!	!	!LO:TX:t=P:problem=kreska pseudotaktowa	!
2D/	-ne	2F/	uo-	2A/	-lun-	2d/	uo-
=10-	=10-	=10-	=10-	=10-	=10-	=10-	=10-
!	!	!	!	!LO:TX:t=P:problem=kreska pseudotaktowa	!	!	!
1G\	uo-	4G/	.	1B-\	-ta-	2.d/	-lun-
.	.	4A/	-lun-	.	.	.	.
.	.	4B-/	.	.	.	.	.
!	!	!LO:TX:t=P:problem=kreska pseudotaktowa	!	!	!	!	!
.	.	4G/	.	.	.	4e\	-ta-
2F\	-lu(n)-	2A/	.	2c\	-tis;	2f\	.
!LO:TX:t=P:problem=kreska pseudotaktowa	!	!	!	!	!	!LO:TX:t=P:problem=kreska pseudotaktowa	!
*	*	*	*	*	*ij	*	*
2BB-/	-ta-	2B-/	.	2d\	uo-	2d/	-tis,
=11-	=11-	=11-	=11-	=11-	=11-	=11-	=11-
*lig	*	*	*	*	*	*	*
1C/	-tis,	2A/	.	2.c\	.	1e\	.
!	!	!LO:TX:t=P:problem=kreska pseudotaktowa	!	!	!	!	!
.	.	[y2G/	-ta-	.	.	.	.
.	.	.	.	4B-\	-lun-	.	.
!LO:TX:t=P:problem=kreska pseudotaktowa	!	!	!	!	!	!LO:TX:t=P:problem=kreska pseudotaktowa	!
!	!	!LO:N:xstem:cue	!	!	!	!	!
1D\	.	4G/]	.	1A\	-ta-	0d\	.
.	.	4F/	.	.	.	.	.
.	.	2F/	.	.	.	.	.
*Xlig	*	*	*	*	*	*	*
=12-	=12-	=12-	=12-	=12-	=12-	=12-	=12-
!	!	!LO:TX:t=P:problem=kreska pseudotaktowa	!	!LO:TX:t=P:problem=kreska pseudotaktowa	!	!	!
2r	.	1G/	-tis,	0G/	-tis	.	.
*	*	*	*	*	*Xij	*	*
2GG/	lau-	.	.	.	.	.	.
2GG/	.	0B-\	lau-	.	.	2r	.
!LO:TX:t=P:problem=kreska pseudotaktowa	!	!	!	!	!	!	!
2GG/	-da-	.	.	.	.	2d/	lau-
=13-	=13-	=13-	=13-	=13-	=13-	=13-	=13-
*	*	*	*	*custos:d	*	*	*
2.BB-/	-mus	.	.	2r	.	2d/	-da-
!	!	!	!	!LO:LB:g=original	!	!	!
!	!	!	!	!LO:TX:t=P:problem=kreska pseudotaktowa	!	!LO:TX:t=P:problem=kreska pseudotaktowa	!
.	.	.	.	2d\	lau-	2d/	-m(us)
!LO:TX:t=P:problem=kreska pseudotaktowa	!	!	!	!	!	!	!
4C/	.	.	.	.	.	.	.
*	*	*	*	*	*	*custos:c	*
!LO:TX:t=P:problem=pomyłka rytmiczna oznaczona przez dorysowanie drugiej caudy	!	!	!	!	!	!	!
!LO:TX:t=P:problem=kreska pseudotaktowa	!	!LO:TX:t=P:problem=kreska pseudotaktowa	!	!	!	!	!
1D\	te,	1F/	-da-	2d\	-da-	1A/,	te
.	.	.	.	2d\	-mus	.	.
!	!	!	!	!	!	!LO:LB:g=original	!
=14-	=14-	=14-	=14-	=14-	=14-	=14-	=14-
1C/	.	1G/	-mus	2.e\	te	1c\	be-
!	!	!	!	!LO:TX:t=P:problem=kreska pseudotaktowa	!	!	!
.	.	.	.	4e\	be-	.	.
!	!	!LO:TX:t=P:problem=kreska pseudotaktowa	!	!	!	!	!
2r	.	1G/	te,	2d\	-ne-	2B-/	-ne-
!LO:TX:t=P:problem=kreska pseudotaktowa	!	!	!	!	!	!LO:TX:t=P:problem=kreska pseudotaktowa	!
2C/	be-	.	.	2e\	-di-	2G/	-di-
=15-	=15-	=15-	=15-	=15-	=15-	=15-	=15-
*	*	*custos:e	*	*	*	*	*
2BB-/	-ne-	1d\	be-	2f\	-ci-	2B-/	  ci-
!	!	!	!	!LO:TX:t=P:problem=kreska pseudotaktowa	!	!	!
2D/	-di-	.	.	2F/	-mus	4A/	-mus
!	!	!	!	!	!	!LO:TX:t=P:problem=kreska pseudotaktowa	!
.	.	.	.	.	.	4B-/	.
!	!	!LO:LB:g=original	!	!	!	!	!
2C/	-ci-	2e\	-ne-	0G/	te;	4c/	.
.	.	.	.	.	.	4B-/	.
*custos:C	*	*	*	*	*	*	*
!LO:TX:t=P:problem=kreska pseudotaktowa	!	!LO:TX:t=P:problem=kreska pseudotaktowa	!	!	!	!	!
2BB-/	.	2d\	-di-	.	.	2.d\	.
!LO:LB:g=original	!	!	!	!	!	!	!
=16-	=16-	=16-	=16-	=16-	=16-	=16-	=16-
1C/	-mus	2.e\	-ci-	.	.	.	.
.	.	.	.	.	.	4c/	.
.	.	.	.	.	.	1c\	.
.	.	4d\	-mus	.	.	.	.
!LO:TX:t=P:problem=kreska pseudotaktowa	!	!LO:TX:t=P:problem=kreska pseudotaktowa	!	!	!	!	!
1GG/	te,	0d\	te,	2r	.	.	.
.	.	.	.	1G/	a-	4B-/	.
!	!	!	!	!	!	!LO:TX:t=P:problem=kreska pseudotaktowa	!
.	.	.	.	.	.	4A/	.
=17-	=17-	=17-	=17-	=17-	=17-	=17-	=17-
2r	.	.	.	.	.	2.B-/	te,
!	!	!	!	!LO:TX:t=P:problem=kreska pseudotaktowa	!	!	!
1G\	a-	.	.	2G/	-do-	.	.
.	.	.	.	.	.	4c/	.
.	.	2r	.	2B-/	-ra-	4d\	.
.	.	.	.	.	.	4e\	.
!LO:TX:t=P:problem=kreska pseudotaktowa	!	!	!	!	!	!	!
2D/	-do-	2d\	a-	1A\	-mus	1f\	a-
=18-	=18-	=18-	=18-	=18-	=18-	=18-	=18-
2F\	-ra-	2c\	-do-	.	.	.	.
!	!	!LO:TX:t=P:problem=kreska pseudotaktowa	!	!	!	!LO:TX:t=P:problem=kreska pseudotaktowa	!
2G\	-mus	2B-\	-ra-	4G/	.	2d\	-do-
!	!	!	!	!LO:TX:t=P:problem=kreska pseudotaktowa	!	!	!
.	.	.	.	4F/	.	.	.
1E\	.	1c\	-mus	1G/	.	2e\	-ra-
*	*	*	*	*	*	*custos:f	*
!	!	!	!	!	!	!LO:TX:t=P:problem=kreska pseudotaktowa	!
.	.	.	.	.	.	2g\	-mus
!	!	!	!	!	!	!LO:PB:g=original	!
=19-	=19-	=19-	=19-	=19-	=19-	=19-	=19-
!LO:TX:t=P:problem=kreska pseudotaktowa	!	!	!	!	!	!LO:TX:t=P:problem=kreska pseudotaktowa	!
1D\	te,	0d\	te,	1A\	te;	1f\	te,
4GG/	glo-	.	.	2.B-\	glo-	2r	.
4AA/	.	.	.	.	.	.	.
!	!	!	!	!	!	!LO:TX:t=P:problem=kreska pseudotaktowa	!
4BB-/	.	.	.	.	.	2d/	glo-
*	*	*	*	*custos:F	*	*	*
!LO:TX:t=P:problem=kreska pseudotaktowa	!	!	!	!LO:TX:t=P:problem=kreska pseudotaktowa	!	!	!
4C/	.	.	.	4A\	.	.	.
!	!	!	!	!LO:LB:g=original	!	!	!
=20-	=20-	=20-	=20-	=20-	=20-	=20-	=20-
!	!	!LO:TX:t=P:problem=kreska pseudotaktowa	!	!	!	!	!
4D/	.	1d\	glo-	2F/	-ri-	1.f\	.
4E\	.	.	.	.	.	.	.
2.F\	.	.	.	2.A/	-fi-	.	.
.	.	1c\	-ri-	.	.	.	.
4E\	-ri-	.	.	4G/	.	.	.
!LO:TX:t=P:problem=kreska pseudotaktowa	!	!	!	!	!	!LO:TX:t=P:problem=kreska pseudotaktowa	!
2C/	-fi-	.	.	1G/	.	2e\	-ri-
=21-	=21-	=21-	=21-	=21-	=21-	=21-	=21-
1D\	-ca-	1B-\	-fi-	.	.	2d/	-fi-
!	!	!	!	!LO:TX:t=P:problem=kreska pseudotaktowa	!	!	!
.	.	.	.	2F/	-ca-	2.f\	-ca-
1.C/	.	2c\	-ca-	2.G/	-mus	.	.
.	.	.	.	.	.	4e\	.
!	!	!LO:TX:t=P:problem=kreska pseudotaktowa	!	!	!	!LO:TX:t=P:problem=kreska pseudotaktowa	!
.	.	2c\	-m(us)	.	.	2e\	.
.	.	.	.	4F/	.	.	.
=22-	=22-	=22-	=22-	=22-	=22-	=22-	=22-
.	.	0G/	te,	2E/	.	2c/	.
!	!	!	!	!LO:TX:t=P:problem=kreska pseudotaktowa	!	!	!
2BB-/	-mus	.	.	2D/	.	2.d/	.
1C/	te,	.	.	1E/	te;	.	.
.	.	.	.	.	.	4c/	-mus
.	.	.	.	.	.	1c\	.
=23-	=23-	=23-	=23-	=23-	=23-	=23-	=23-
*custos:G	*	*	*	*	*	*	*
!LO:TX:t=P:problem=kreska pseudotaktowa	!	!	!	!LO:TX:t=P:problem=kreska pseudotaktowa	!	!	!
1GG/	.	2r	.	1D/	.	.	.
!	!	!LO:TX:t=P:problem=kreska pseudotaktowa	!	!	!	!	!
.	.	2.d\	Gra-	.	.	4B-/	.
.	.	.	.	.	.	4A/	.
!LO:LB:g=original	!	!	!	!	!	!LO:TX:t=P:problem=kreska pseudotaktowa	!
2.G\	Gra-	.	.	0r	.	1B-/	te,
.	.	4d\	-ti-	.	.	.	.
*	*	*custos:B-	*	*	*	*	*
!	!	!LO:TX:t=P:problem=kreska pseudotaktowa	!	!	!	!	!
.	.	2d\	-as	.	.	.	.
!LO:TX:t=P:problem=kreska pseudotaktowa	!	!	!	!	!	!	!
4G\	-ti-	.	.	.	.	.	.
!	!	!LO:LB:g=original	!	!	!	!	!
=24-	=24-	=24-	=24-	=24-	=24-	=24-	=24-
2G\	-as	2B-\	a-	.	.	00r	.
!LO:TX:t=P:problem=kreska pseudotaktowa	!	!LO:TX:t=P:problem=kreska pseudotaktowa	!	!	!	!	!
2E\	a-	2c\	-gi-	.	.	.	.
2F\	-gi-	2A/	-mus-	2r	.	.	.
2.G\	-mus	2.B-\	.	2.d\	Gra-	.	.
=25-	=25-	=25-	=25-	=25-	=25-	=25-	=25-
4F\	.	4A/	-ti-	4d\	-ti-	.	.
!	!	!	!	!LO:TX:t=P:problem=kreska pseudotaktowa	!	!	!
4E\	.	4G/	.	2d\	-as	.	.
!LO:TX:t=P:problem=kreska pseudotaktowa	!	!LO:TX:t=P:problem=kreska pseudotaktowa	!	!	!	!	!
4D\	.	4F/	.	.	.	.	.
1E\	.	1G/	.	2B-\	a-	.	.
!	!	!	!	!LO:TX:t=P:problem=kreska pseudotaktowa	!	!	!
.	.	.	.	2c\	-gi-	.	.
=26-	=26-	=26-	=26-	=26-	=26-	=26-	=26-
!LO:TX:t=P:problem=kreska pseudotaktowa	!	!	!	!	!	!	!
1D\	.	2.A/	.	2d\	-mus	0r	.
.	.	.	.	1f\	ti-	.	.
!	!	!LO:TX:t=P:problem=kreska pseudotaktowa	!	!	!	!	!
.	.	4B-\	.	.	.	.	.
1C/	ti-	1c\	.	.	.	.	.
*	*	*	*	*custos:d	*	*	*
!	!	!	!	!LO:TX:t=P:problem=kreska pseudotaktowa	!	!	!
.	.	.	.	2e\	.	.	.
!	!	!	!	!LO:PB:g=original	!	!	!
=27-	=27-	=27-	=27-	=27-	=27-	=27-	=27-
!LO:TX:t=P:problem=kreska pseudotaktowa	!	!	!	!	!	!	!
1D\	-bi,	2A,/	-bi,	1d\	-bi	0f\	prop-
.	.	1B-\	pro-	.	.	.	.
2r	.	.	.	0r	.	.	.
2F\	p(ro)p-	4A/	.	.	.	.	.
!	!	!LO:TX:t=P:problem=kreska pseudotaktowa	!	!	!	!	!
.	.	4G/	.	.	.	.	.
=28-	=28-	=28-	=28-	=28-	=28-	=28-	=28-
!	!	!	!	!	!	!LO:TX:t=P:problem=kreska pseudotaktowa	!
2F\	-ter	2A/	.	.	.	1c\	-ter
!LO:TX:t=P:problem=kreska pseudotaktowa	!	!LO:TX:t=P:problem=kreska pseudotaktowa	!	!	!	!	!
2E\	ma-	2G/	.	.	.	.	.
2D\	-gna(m)	2A/	-pter	2r	.	1d\	ma-
!	!	!	!	!LO:TX:t=P:problem=kreska pseudotaktowa	!	!	!
4GG/	glo-	1G/	ma-	2B-/	prop-	.	.
!LO:TX:t=P:problem=kreska pseudotaktowa	!	!	!	!	!	!	!
4AA/	.	.	.	.	.	.	.
=29-	=29-	=29-	=29-	=29-	=29-	=29-	=29-
*	*	*	*	*	*	*custos:f	*
!	!	!	!	!	!	!LO:TX:t=P:problem=kreska pseudotaktowa	!
4BB-/	.	.	.	2B-/	.	0d\	-gna(m)
*custos:D	*	*	*	*	*	*	*
4C/	.	.	.	.	.	.	.
!LO:PB:g=original	!	!	!	!	!	!	!
!LO:TX:t=P:problem=kreska pseudotaktowa	!	!LO:TX:t=P:problem=kreska pseudotaktowa	!	!LO:TX:t=P:problem=kreska pseudotaktowa	!	!	!
2D/	.	2F/	-gna(m)	2A/	-ter	.	.
*	*	*custos:A	*	*	*	*	*
!	!	!LO:TX:t=P:problem=kreska pseudotaktowa	!	!	!	!	!
4GG/	-ri-	1B-\	glo-	2G/	.	.	.
4AA/	.	.	.	.	.	.	.
4BB-/	.	.	.	2.F/	ma-	.	.
!LO:TX:t=P:problem=kreska pseudotaktowa	!	!	!	!	!	!	!
4C/	.	.	.	.	.	.	.
!	!	!LO:PB:g=original	!	!	!	!LO:LB:g=original	!
=30-	=30-	=30-	=30-	=30-	=30-	=30-	=30-
4D/	.	2A/	-ri-	.	.	2.f\	glo-
4E/	.	.	.	4G/	-gna(m)	.	.
!	!	!	!	!LO:TX:t=P:problem=kreska pseudotaktowa	!	!	!
2.F\	-am	4F/	-am	[y2A/	glo-	.	.
!	!	!LO:TX:t=P:problem=kreska pseudotaktowa	!	!	!	!LO:TX:t=P:problem=kreska pseudotaktowa	!
.	.	4G/	.	.	.	4e\	.
!	!	!	!	!LO:N:xstem:cue	!	!	!
.	.	4A/	.	4A/]	.	4c/	.
4E/	.	4B-/	.	4G/	-ri-	4d/	.
!LO:TX:t=P:problem=kreska pseudotaktowa	!	!	!	!LO:TX:t=P:problem=kreska pseudotaktowa	!	!	!
2C/	tu-	2c\	.	2E/	-am	2.e\	-ri-
=31-	=31-	=31-	=31-	=31-	=31-	=31-	=31-
2D/	.	2A/	.	2F/	.	.	.
.	.	.	.	.	.	4d\	-am
!	!	!LO:TX:t=P:problem=kreska pseudotaktowa	!	!	!	!	!
2GG/	.	2B-/	tu-	2G/	.	1d\	.
!LO:TX:t=P:problem=kreska pseudotaktowa	!	!	!	!	!	!	!
1AA/	-am,	1A\	-am,	1E/	tu-	.	.
.	.	.	.	.	.	2c/	tu-
=32-	=32-	=32-	=32-	=32-	=32-	=32-	=32-
!	!	!	!	!LO:TX:t=P:problem=kreska pseudotaktowa	!	!LO:TX:t=P:problem=kreska pseudotaktowa	!
1r	.	2r	.	0D/	-am,	1d\	-a(m),
!	!	!LO:TX:t=P:problem=kreska pseudotaktowa	!	!	!	!	!
.	.	2A/	Do-	.	.	.	.
1F\	Do-	2A/	.	.	.	2r	.
.	.	2A/	-mi-	.	.	2d\	Do-
=33-	=33-	=33-	=33-	=33-	=33-	=33-	=33-
2C/	-mi-	2G/	-ne	1r	.	2e\	  mi-
!LO:TX:t=P:problem=kreska pseudotaktowa	!	!LO:TX:t=P:problem=kreska pseudotaktowa	!	!	!	!LO:TX:t=P:problem=kreska pseudotaktowa	!
2C/	-ne	2c\	De-	.	.	2e\	-ne
1D\	De-	2B-/	.	2r	.	1f\	De-
!	!	!	!	!LO:TX:t=P:problem=kreska pseudotaktowa	!	!	!
.	.	4A/	.	2d\	Do-	.	.
.	.	4G/	.	.	.	.	.
=34-	=34-	=34-	=34-	=34-	=34-	=34-	=34-
!LO:TX:t=P:problem=kreska pseudotaktowa	!	!LO:TX:t=P:problem=kreska pseudotaktowa	!	!	!	!LO:TX:t=P:problem=kreska pseudotaktowa	!
1D\	-us	1A\	-us,	2d\	-mi-	1f\	-us
.	.	.	.	2d\	-ne	.	.
1A\	rex	00r	.	2.c\	De-	2.e\	.
*	*	*	*	*custos:d	*	*	*
!	!	!	!	!LO:TX:t=P:problem=kreska pseudotaktowa	!	!	!
.	.	.	.	4c\	-us	4f\	rex
=35-	=35-	=35-	=35-	=35-	=35-	=35-	=35-
*custos:A	*	*	*	*	*	*	*
2B-\	ce-	.	.	2d\	Rex	2g\	.
!LO:LB:g=original	!	!	!	!LO:TX:t=P:problem=kreska pseudotaktowa	!	!LO:TX:t=P:problem=kreska pseudotaktowa	!
2A\	.	.	.	2c\	ce-	2.f\	c(ae)-
1B-\	-leſ-	.	.	2.d\	-le-	.	.
.	.	.	.	.	.	4e\	.
.	.	.	.	.	.	1d\	-le-
.	.	.	.	4e\	-ſtis;	.	.
=36-	=36-	=36-	=36-	=36-	=36-	=36-	=36-
!LO:TX:t=P:problem=kreska pseudotaktowa	!	!	!	!	!	!	!
0A\	-tis,	.	.	1f\	.	.	.
.	.	.	.	.	.	4c/	.
*	*	*	*	*	*	*custos:c	*
!	!	!	!	!	!	!LO:TX:t=P:problem=kreska pseudotaktowa	!
.	.	.	.	.	.	4B-/	.
!	!	!	!	!	!	!LO:LB:g=original	!
.	.	2r	.	2e\	.	2c/	-ſtis
!	!	!LO:TX:t=P:problem=kreska pseudotaktowa	!	!LO:TX:t=P:problem=kreska pseudotaktowa	!	!	!
.	.	2A/	De-	2c\	De-	2e\	De-
=37-	=37-	=37-	=37-	=37-	=37-	=37-	=37-
*	*	*custos:A	*	*	*	*	*
00r	.	2A/	-us	2c\	-us	2e\	-us
!	!	!LO:LB:g=original	!	!	!	!	!
!	!	!LO:TX:t=P:problem=kreska pseudotaktowa	!	!	!	!	!
.	.	2A/	pa-	2c\	pa-	2f\	p(a-
.	.	1B-\	-ter	1d\	-ter	2g\	-te)r
!	!	!	!	!	!	!LO:TX:t=P:problem=kreska pseudotaktowa	!
.	.	.	.	.	.	[y2f\	.
=38-	=38-	=38-	=38-	=38-	=38-	=38-	=38-
!	!	!	!	!	!	!LO:N:xstem:cue	!
!	!	!LO:TX:t=P:problem=kreska pseudotaktowa	!	!LO:TX:t=P:problem=kreska pseudotaktowa	!	!	!
.	.	1A\	om-	1c\	om-	4f\]	.
.	.	.	.	.	.	4e\	om-
.	.	.	.	.	.	2.e\	.
.	.	2G/	-(n)i-	2B-\	-ni-	.	.
.	.	.	.	.	.	4d\	-ni-
.	.	2F/	-po-	4A/	-po-	1d\	-po-
.	.	.	.	4G/	.	.	.
=39-	=39-	=39-	=39-	=39-	=39-	=39-	=39-
!	!	!LO:TX:t=P:problem=kreska pseudotaktowa	!	!LO:TX:t=P:problem=kreska pseudotaktowa	!	!	!
1AA/	Do-	1E/	-te(n)s,	0A\	-tens;	.	.
!	!	!	!	!	!	!LO:TX:t=P:problem=kreska pseudotaktowa	!
.	.	.	.	.	.	2c/	-tens;
!	!	!	!	!	!	!LO:TX:t=P:problem=kreska pseudotaktowa	!
1.D\	-mi-	2r	.	.	.	1d\	.
.	.	2D/	Do-	.	.	.	.
=40-	=40-	=40-	=40-	=40-	=40-	=40-	=40-
.	.	2F/	 mi-	1r	.	00r	.
!	!	!LO:TX:t=P:problem=kreska pseudotaktowa	!	!	!	!	!
4C/	.	2G/	.	.	.	.	.
!LO:TX:t=P:problem=kreska pseudotaktowa	!	!	!	!	!	!	!
4BB-/	.	.	.	.	.	.	.
2C/	-ne	2.A/	-ne	2r	.	.	.
!	!	!	!	!LO:TX:t=P:problem=kreska pseudotaktowa	!	!	!
2.D/	fi-	.	.	2D/	Do-	.	.
!	!	!LO:TX:t=P:problem=kreska pseudotaktowa	!	!	!	!	!
.	.	4B-\	fi-	.	.	.	.
=41-	=41-	=41-	=41-	=41-	=41-	=41-	=41-
.	.	2A/	.	2F/	-mi-	.	.
4C/	.	.	.	.	.	.	.
!LO:TX:t=P:problem=kreska pseudotaktowa	!	!	!	!LO:TX:t=P:problem=kreska pseudotaktowa	!	!	!
2BB-/	.	1G/	.	2G/	-ne	.	.
*	*	*	*	*custos:c	*	*	*
1AA/	.	.	.	2A/	fi-	.	.
!	!	!	!	!LO:LB:g=original	!	!	!
!	!	!LO:TX:t=P:problem=kreska pseudotaktowa	!	!LO:TX:t=P:problem=kreska pseudotaktowa	!	!	!
.	.	2F/	-li	2c\	-li	.	.
=42-	=42-	=42-	=42-	=42-	=42-	=42-	=42-
2GG/	-li,	2G/	u-	2B-/	u-	2r	.
!	!	!	!	!	!	!LO:TX:t=P:problem=kreska pseudotaktowa	!
1G\	u-	1B-\	-ni-	2.d\	-ni-	2G/	Do-
.	.	.	.	.	.	2B-/	-mi-
.	.	.	.	4c\	.	.	.
!	!	!	!	!	!	!LO:TX:t=P:problem=kreska pseudotaktowa	!
4F\	.	4A/	.	1c\	-ge-	2c/	.
!LO:TX:t=P:problem=kreska pseudotaktowa	!	!LO:TX:t=P:problem=kreska pseudotaktowa	!	!	!	!	!
4E\	.	4G/	.	.	.	.	.
=43-	=43-	=43-	=43-	=43-	=43-	=43-	=43-
1D\	.	1F/	-ge-	.	.	2d\	-ne
!	!	!	!	!LO:TX:t=P:problem=kreska pseudotaktowa	!	!	!
.	.	.	.	2B-\	-ni-	1f\	fi-
*	*	*custos:F	*	*	*	*	*
!LO:TX:t=P:problem=kreska pseudotaktowa	!	!LO:TX:t=P:problem=kreska pseudotaktowa	!	!	!	!	!
1C/	-ni-	1G/	.	1c\	-te	.	.
*	*	*	*	*	*	*custos:d	*
!	!	!	!	!	!	!LO:TX:t=P:problem=kreska pseudotaktowa	!
.	.	.	.	.	.	2e\	-li
!	!	!LO:LB:g=original	!	!	!	!LO:LB:g=original	!
=44-	=44-	=44-	=44-	=44-	=44-	=44-	=44-
2D/	-ge-	2F/	.	2A/	u-	2d\	v-
*custos:D	*	*	*	*	*	*	*
!	!	!	!	!LO:TX:t=P:problem=kreska pseudotaktowa	!	!	!
2C/	.	1G/	.	2c\	-ni-	2.e\	.
!LO:LB:g=original	!	!	!	!	!	!	!
1D\	.	.	.	2B-\	.	.	.
.	.	.	.	.	.	4d\	-ni-
!	!	!LO:TX:t=P:problem=kreska pseudotaktowa	!	!	!	!	!
.	.	2F/	.	2.A/	-ge-	1d\	-ge-
=45-	=45-	=45-	=45-	=45-	=45-	=45-	=45-
1E\	-ni-	1G/	-ni-	.	.	.	.
.	.	.	.	4G/	.	.	.
!	!	!	!	!	!	!LO:TX:t=P:problem=kreska pseudotaktowa	!
.	.	.	.	1G/	.	2c/	-ni-
!LO:TX:t=P:problem=kreska pseudotaktowa	!	!	!	!	!	!	!
1D\	-te	1A\	-te	.	.	0d\,	-te
.	.	.	.	4F/	-ni-	.	.
!	!	!	!	!LO:TX:t=P:problem=kreska pseudotaktowa	!	!	!
.	.	.	.	4E/	.	.	.
=46-	=46-	=46-	=46-	=46-	=46-	=46-	=46-
!	!	!LO:TX:t=P:problem=kreska pseudotaktowa	!	!LO:TX:t=P:problem=kreska pseudotaktowa	!	!	!
0BB-/	Ie-	0B-\	Oe-	1F/	-te,	.	.
.	.	.	.	2r	.	0f\	Ie-
.	.	.	.	1B-\	Ie-	.	.
=47-	=47-	=47-	=47-	=47-	=47-	=47-	=47-
!LO:TX:t=P:problem=kreska pseudotaktowa	!	!	!	!	!	!	!
1D\	-ſu	1F/	-ſu	.	.	.	.
*	*	*	*	*custos:c	*	*	*
!	!	!	!	!LO:TX:t=P:problem=kreska pseudotaktowa	!	!	!
.	.	.	.	2A/	-ſu	.	.
!	!	!	!	!LO:LB:g=original	!	!	!
!	!	!	!	!	!	!LO:TX:t=P:problem=kreska pseudotaktowa	!
0C/	Chri-	1G/	Chri-	1.c\	.	0e\	-ſu
=48-	=48-	=48-	=48-	=48-	=48-	=48-	=48-
!	!	!LO:TX:t=P:problem=kreska pseudotaktowa	!	!	!	!	!
.	.	1G/	-ſte;	.	.	.	.
.	.	.	.	2G/	Chri-	.	.
*	*	*	*	*	*	*col	*
1BB-/	.	1d\	.	1B-\	-ſte	1.d\	.
=49-	=49-	=49-	=49-	=49-	=49-	=49-	=49-
!	!	!	!	!LO:TX:t=P:problem=kreska pseudotaktowa	!	!	!
0C/	.	0e\	Do-	00G/	.	.	.
.	.	.	.	.	.	4c/	Chri-
.	.	.	.	.	.	4B-/	.
*	*	*	*	*	*	*Xcol	*
!	!	!	!	!	!	!LO:TX:t=P:problem=kreska pseudotaktowa	!
.	.	.	.	.	.	1c\	-ſte,
=50-	=50-	=50-	=50-	=50-	=50-	=50-	=50-
!LO:TX:t=P:problem=kreska pseudotaktowa	!	!LO:TX:t=P:problem=kreska pseudotaktowa	!	!	!	!LO:TX:t=P:problem=kreska pseudotaktowa	!
1GG/	-ſte,	0d\	-mi-	.	.	0B-/	.
2r	.	.	.	.	.	.	.
2.G\	Do-	.	.	.	.	.	.
=51-	=51-	=51-	=51-	=51-	=51-	=51-	=51-
.	.	1d\	-ne	0r	.	0r	.
4F\	.	.	.	.	.	.	.
!LO:TX:t=P:problem=kreska pseudotaktowa	!	!	!	!	!	!	!
2D/	-mi-	.	.	.	.	.	.
2F\	-ne	2c\	.	.	.	.	.
2G\	.	2B-\	De-	.	.	.	.
=52-	=52-	=52-	=52-	=52-	=52-	=52-	=52-
!	!	!LO:TX:t=P:problem=kreska pseudotaktowa	!	!LO:TX:t=P:problem=kreska pseudotaktowa	!	!	!
1E\	De-	1c\	-us,	1r	.	2r	.
.	.	.	.	.	.	1G/	Do-
!LO:TX:t=P:problem=kreska pseudotaktowa	!	!	!	!	!	!	!
1D\	-us,	00d\	.	1A\	Do-	.	.
!	!	!	!	!	!	!LO:TX:t=P:problem=kreska pseudotaktowa	!
.	.	.	.	.	.	2F/	.
=53-	=53-	=53-	=53-	=53-	=53-	=53-	=53-
0r	.	.	.	2G/	.	2G/	-mi-
!	!	!	!	!LO:TX:t=P:problem=kreska pseudotaktowa	!	!LO:TX:t=P:problem=kreska pseudotaktowa	!
.	.	.	.	2F/	-mi-	2A/	-ne
.	.	.	.	1G/	-ne	2.B-/	De-
*	*	*	*	*	*	*custos:F	*
!	!	!	!	!	!	!LO:TX:t=P:problem=kreska pseudotaktowa	!
.	.	.	.	.	.	4A/	.
!	!	!	!	!	!	!LO:PB:g=original	!
=54-	=54-	=54-	=54-	=54-	=54-	=54-	=54-
!LO:TX:t=P:problem=kreska pseudotaktowa	!	!	!	!	!	!	!
1D\	a	.	.	2.A/	De-	2F/	-us
.	.	.	.	.	.	2f\	a-
!	!	!	!	!LO:TX:t=P:problem=kreska pseudotaktowa	!	!	!
.	.	.	.	4B-\	-us	.	.
*custos:B-	*	*	*	*	*	*	*
2C/	gnus	0r	.	2c\	a-	2e\	.
!LO:LB:g=original	!	!	!	!	!	!	!
!LO:TX:t=P:problem=kreska pseudotaktowa	!	!	!	!	!	!LO:TX:t=P:problem=kreska pseudotaktowa	!
2BB-/	.	.	.	2.d\	-gnus	2d\	-gnus
=55-	=55-	=55-	=55-	=55-	=55-	=55-	=55-
!	!	!LO:TX:t=P:problem=kreska pseudotaktowa	!	!	!	!	!
1C/	De-	.	.	.	.	1e\	.
.	.	.	.	4c\	.	.	.
.	.	.	.	1c\	De-	.	.
!LO:TX:t=P:problem=kreska pseudotaktowa	!	!	!	!	!	!	!
1D\	-i,	1d\	a-	.	.	1f\	De-
!	!	!	!	!LO:TX:t=P:problem=kreska pseudotaktowa	!	!	!
.	.	.	.	2B-\	-i	.	.
=56-	=56-	=56-	=56-	=56-	=56-	=56-	=56-
*	*	*custos:B-	*	*	*	*	*
!	!	!	!	!	!	!LO:TX:t=P:problem=kreska pseudotaktowa	!
0r	.	2c\	-gnus	2e\	fi-	1g\	-i,
!	!	!LO:LB:g=original	!	!	!	!	!
!	!	!LO:TX:t=P:problem=kreska pseudotaktowa	!	!	!	!	!
.	.	2B-/	.	2d\	-li-	.	.
*	*	*	*	*custos:d	*	*	*
!	!	!	!	!LO:TX:t=P:problem=kreska pseudotaktowa	!	!	!
.	.	1c\	De-	1e\	-us	2r	.
.	.	.	.	.	.	2g\	fi-
!	!	!	!	!LO:PB:g=original	!	!	!
=57-	=57-	=57-	=57-	=57-	=57-	=57-	=57-
!	!	!LO:TX:t=P:problem=kreska pseudotaktowa	!	!	!	!	!
2r	.	1G/	-i,	2d\	.	2g\	-li-
!LO:TX:t=P:problem=kreska pseudotaktowa	!	!	!	!	!	!LO:TX:t=P:problem=kreska pseudotaktowa	!
2G\	fi-	.	.	2.B-/	.	2d/	-us
2D/	-li-	1r	.	.	.	0f\	pa-
.	.	.	.	4A/	.	.	.
1F\	-us	.	.	1A\	pa-	.	.
=58-	=58-	=58-	=58-	=58-	=58-	=58-	=58-
.	.	1c\	fi-	.	.	.	.
4E\	.	.	.	4G/	.	.	.
!LO:TX:t=P:problem=kreska pseudotaktowa	!	!	!	!LO:TX:t=P:problem=kreska pseudotaktowa	!	!	!
4D/	.	.	.	4F/	.	.	.
!	!	!LO:TX:t=P:problem=kreska pseudotaktowa	!	!	!	!	!
2C/	p(at)-	1c\	-li-	2G/	.	2e\	.
2F\	-ris,	.	.	2A/	.	1f\	.
=59-	=59-	=59-	=59-	=59-	=59-	=59-	=59-
!LO:TX:t=P:problem=kreska pseudotaktowa	!	!	!	!	!	!	!
1BB-/	.	1d\	-us	1B-\	.	.	.
.	.	.	.	.	.	1B-/	.
!	!	!	!	!LO:TX:t=P:problem=kreska pseudotaktowa	!	!	!
2r	.	1c\	p(at)-	1F/	-tris;	.	.
!LO:TX:t=P:problem=kreska pseudotaktowa	!	!	!	!	!	!LO:TX:t=P:problem=kreska pseudotaktowa	!
*	*ij	*	*	*	*	*	*
2F\	fi-	.	.	.	.	2A/	.
=60-	=60-	=60-	=60-	=60-	=60-	=60-	=60-
!	!	!LO:TX:t=P:problem=kreska pseudotaktowa	!	!	!	!	!
2.G\	-li-	1B-\	-ris,	1r	.	2G/	-tris,
*	*	*	*	*	*	*	*ij
.	.	.	.	.	.	1g\	fi-
4F\	-us	.	.	.	.	.	.
*	*	*	*ij	*	*	*	*
2E\	p(at)-	1B-\	fi-	2r	.	.	.
!LO:TX:t=P:problem=kreska pseudotaktowa	!	!	!	!LO:TX:t=P:problem=kreska pseudotaktowa	!	!	!
*	*	*	*	*	*ij	*	*
2D/	.	.	.	2F/	fi-	1f\	-li-
=61-	=61-	=61-	=61-	=61-	=61-	=61-	=61-
1C/	-ris	2.c\	-li-	1G/	-li-	.	.
*	*Xij	*	*	*	*	*	*
!	!	!	!	!	!	!LO:TX:t=P:problem=kreska pseudotaktowa	!
.	.	.	.	.	.	2e\	-us-
!	!	!LO:TX:t=P:problem=kreska pseudotaktowa	!	!	!	!	!
.	.	4B-\	-us	.	.	.	.
2r	.	2A/	p(at)-	2F/	-us	2d/	-pa-
*custos:A	*	*	*	*	*	*custos:d	*
!LO:TX:t=P:problem=kreska pseudotaktowa	!	!	!	!	!	!LO:TX:t=P:problem=kreska pseudotaktowa	!
2G\	fi-	2G/	.	2E/	pa-	2c/	-tris
*	*	*	*	*	*	*	*Xij
!LO:PB:g=original	!	!	!	!	!	!LO:LB:g=original	!
=62-	=62-	=62-	=62-	=62-	=62-	=62-	=62-
!	!	!LO:TX:t=P:problem=kreska pseudotaktowa	!	!LO:TX:t=P:problem=kreska pseudotaktowa	!	!	!
2.A\	-li-	1F/	-ris	1D/	-tris	1.d\	fi-
*	*	*	*Xij	*	*Xij	*	*
!LO:TX:t=P:problem=kreska pseudotaktowa	!	!	!	!	!	!	!
4G\	.	.	.	.	.	.	.
2F\	-us	2r	.	1r	.	.	.
!LO:TX:t=P:problem=kreska pseudotaktowa	!	!	!	!	!	!LO:TX:t=P:problem=kreska pseudotaktowa	!
2E/	.	2G/	fi-	.	.	2c/	-li-
=63-	=63-	=63-	=63-	=63-	=63-	=63-	=63-
!	!	!	!	!LO:TX:t=P:problem=kreska pseudotaktowa	!	!	!
2.D/	pa-	1.A\	-li-	1d\	fi-	1f\	-us-
!LO:TX:t=P:problem=kreska pseudotaktowa	!	!	!	!	!	!	!
4E/	.	.	.	.	.	.	.
2F\	.	.	.	2.c\	-li-	2f\	.
!LO:TX:t=P:problem=kreska pseudotaktowa	!	!LO:TX:t=P:problem=kreska pseudotaktowa	!	!	!	!LO:TX:t=P:problem=kreska pseudotaktowa	!
2C/	.	2G/	-us	.	.	2.e\	-pa-
.	.	.	.	4B-\	-us	.	.
=64-	=64-	=64-	=64-	=64-	=64-	=64-	=64-
*	*	*	*	*custos:A	*	*	*
*	*	*custos:E	*	*	*	*	*
!	!	!	!	!LO:TX:t=P:problem=kreska pseudotaktowa	!	!	!
1D\	.	1F/	pa-	0A\	pa-	.	.
.	.	.	.	.	.	4d\	.
.	.	.	.	.	.	1d\	.
!	!	!LO:PB:g=original	!	!	!	!	!
1AA/	.	1E/	.	.	.	.	.
.	.	.	.	.	.	2c/	.
!	!	!	!	!LO:LB:g=original	!	!	!
=65-	=65-	=65-	=65-	=65-	=65-	=65-	=65-
0Dl\;	-tris.	0D/;	-tris,	0Al\;	-tris,	0dl\;<	-tris;
=66||-	=66||-	=66||-	=66||-	=66||-	=66||-	=66||-	=66||-
*M2/1	*	*M2/1	*	*M2/1	*	*M2/1	*
*met(C|)	*	*met(C|)	*	*met(C|)	*	*met(C|)	*
0F\	Qui	00r	.	00r	.	00r	.
=67-	=67-	=67-	=67-	=67-	=67-	=67-	=67-
*lig	*	*	*	*	*	*	*
1C/	tol-	.	.	.	.	.	.
1D\	.	.	.	.	.	.	.
*Xlig	*	*	*	*	*	*	*
=68-	=68-	=68-	=68-	=68-	=68-	=68-	=68-
!LO:TX:t=P:problem=kreska pseudotaktowa	!	!	!	!	!	!LO:TX:t=P:problem=kreska pseudotaktowa	!
1D\	-lis,	00r	.	00r	.	0f\	Qui
2r	.	.	.	.	.	.	.
!LO:TX:t=P:problem=kreska pseudotaktowa	!	!	!	!	!	!	!
2A\	pec-	.	.	.	.	.	.
=69-	=69-	=69-	=69-	=69-	=69-	=69-	=69-
*	*	*	*	*	*	*lig	*
2A\	-ca-	.	.	.	.	1c\	tol-
*custos:B-	*	*	*	*	*	*	*
!LO:TX:t=P:problem=kreska pseudotaktowa	!	!	!	!	!	!	!
2A\	-ta	.	.	.	.	.	.
!LO:LB:g=original	!	!	!	!	!	!	!
2.B-\	mun-	.	.	.	.	1d\	.
4A\	.	.	.	.	.	.	.
!LO:TX:t=P:problem=kreska pseudotaktowa	!	!	!	!	!	!	!
*	*	*	*	*	*	*Xlig	*
=70-	=70-	=70-	=70-	=70-	=70-	=70-	=70-
!	!	!	!	!LO:TX:t=P:problem=kreska pseudotaktowa	!	!LO:TX:t=P:problem=kreska pseudotaktowa	!
4G\	.	00r	.	0B-\	Qui	1d\	-lis
4F\	.	.	.	.	.	.	.
1G\	.	.	.	.	.	.	.
.	.	.	.	.	.	2r	.
4F\	.	.	.	.	.	2d\	pec-
!LO:TX:t=P:problem=kreska pseudotaktowa	!	!	!	!	!	!	!
4E\	.	.	.	.	.	.	.
=71-	=71-	=71-	=71-	=71-	=71-	=71-	=71-
*	*	*	*	*lig	*	*	*
1D\	.	.	.	1F/	tol-	2d\	-ca-
!	!	!	!	!	!	!LO:TX:t=P:problem=kreska pseudotaktowa	!
.	.	.	.	.	.	2d\	-ta
1C/	.	.	.	1G/	.	1e\	mu(n)-
*	*	*	*	*Xlig	*	*	*
=72-	=72-	=72-	=72-	=72-	=72-	=72-	=72-
*	*	*	*	*	*	*custos:G	*
!LO:TX:t=P:problem=kreska pseudotaktowa	!	!LO:TX:t=P:problem=kreska pseudotaktowa	!	!LO:TX:t=P:problem=kreska pseudotaktowa	!	!LO:TX:t=P:problem=kreska pseudotaktowa	!
0GG/	-di,	0B-\	Qui	1G/	-lis	1d\	.
!	!	!	!	!	!	!LO:LB:g=original	!
.	.	.	.	2r	.	1G/	.
.	.	.	.	2d\	pec-	.	.
=73-	=73-	=73-	=73-	=73-	=73-	=73-	=73-
*	*ij	*lig	*	*	*	*	*
1D\	pec-	1F/	tol-	2d\	.	2A/	.
!	!	!	!	!LO:TX:t=P:problem=kreska pseudotaktowa	!	!LO:TX:t=P:problem=kreska pseudotaktowa	!
.	.	.	.	2d\	-ca-	2B-/	.
2.C/	-ca-	1G/	.	1.e\	-ta	1c\	-di;
4D/	.	.	.	.	.	.	.
!LO:TX:t=P:problem=kreska pseudotaktowa	!	!	!	!	!	!	!
*	*	*Xlig	*	*	*	*	*
=74-	=74-	=74-	=74-	=74-	=74-	=74-	=74-
!	!	!	!	!	!	!LO:TX:t=P:problem=kreska pseudotaktowa	!
4E-X\	.	1G/	-lis	.	.	1B-/	.
4F\	.	.	.	.	.	.	.
1G\	.	.	.	2.d\	mun-	.	.
.	.	1d\	pec-	.	.	2r	.
.	.	.	.	4c\	.	.	.
!LO:TX:t=P:problem=kreska pseudotaktowa	!	!	!	!	!	!	!
2F\	.	.	.	2A/	-di	2F/	pec -
=75-	=75-	=75-	=75-	=75-	=75-	=75-	=75-
!	!	!	!	!LO:TX:t=P:problem=kreska pseudotaktowa	!	!	!
2.E-X\	.	1.e\	-ca-	1B-\	.	2.G/	-ca-
!LO:TX:t=P:problem=kreska pseudotaktowa	!	!	!	!	!	!LO:TX:t=P:problem=kreska pseudotaktowa	!
4D/	.	.	.	.	.	4F/	.
2C/	.	.	.	0r	.	4G/	.
.	.	.	.	.	.	4A/	.
!	!	!LO:TX:t=P:problem=kreska pseudotaktowa	!	!	!	!	!
2BB-/	-ta	2d\	-ta	.	.	1B-/	-ta
=76-	=76-	=76-	=76-	=76-	=76-	=76-	=76-
*custos:BB-	*	*	*	*	*	*	*
!LO:TX:t=P:problem=kreska pseudotaktowa	!	!	!	!	!	!	!
0C/	mun-	0e\	m(un)-	.	.	.	.
.	.	.	.	.	.	4A/	.
!	!	!	!	!	!	!LO:TX:t=P:problem=kreska pseudotaktowa	!
.	.	.	.	.	.	4G/	.
.	.	.	.	1c\	mi-	1A/	mu(n)-
!LO:LB:g=original	!	!	!	!	!	!	!
=77-	=77-	=77-	=77-	=77-	=77-	=77-	=77-
!	!	!LO:TX:t=P:problem=kreska pseudotaktowa	!	!	!	!LO:TX:t=P:problem=kreska pseudotaktowa	!
2BB-,/	-di	1d\	-di,	2.f\	.	1B-/	-di;
*	*Xij	*	*	*	*	*	*
1B-\	mi-	.	.	.	.	.	.
!	!	!	!	!LO:TX:t=P:problem=kreska pseudotaktowa	!	!	!
.	.	.	.	4e\	-ſe-	.	.
*	*	*	*	*custos:c	*	*	*
.	.	00r	.	2d\	-re-	1f\	mi-
!	!	!	!	!LO:LB:g=original	!	!	!
!LO:TX:t=P:problem=kreska pseudotaktowa	!	!	!	!LO:TX:t=P:problem=kreska pseudotaktowa	!	!	!
2A\	-ſe-	.	.	2c\	-re	.	.
=78-	=78-	=78-	=78-	=78-	=78-	=78-	=78-
2.G\	-re-	.	.	2.B-/	no-	2e\	.
.	.	.	.	.	.	2.d\	-ſe-
4F\	-re	.	.	4A/	.	.	.
2D/	.	.	.	2F/	.	.	.
.	.	.	.	.	.	4c/	-re-
!LO:TX:t=P:problem=kreska pseudotaktowa	!	!	!	!LO:TX:t=P:problem=kreska pseudotaktowa	!	!LO:TX:t=P:problem=kreska pseudotaktowa	!
2F\	.	.	.	2.A/	.	2A/	.
=79-	=79-	=79-	=79-	=79-	=79-	=79-	=79-
*	*	*	*	*	*	*custos:c	*
2E-X/	no-	.	.	.	.	2B-/	.
.	.	.	.	4G/	.	.	.
!	!	!	!	!	!	!LO:LB:g=original	!
!LO:TX:t=P:problem=kreska pseudotaktowa	!	!	!	!	!	!	!
2C/	.	.	.	1G/	.	2c/	-re
2.D/	.	1d\	mi-	.	.	1A/	no-
.	.	.	.	4F/	.	.	.
!	!	!	!	!LO:TX:t=P:problem=kreska pseudotaktowa	!	!	!
4C/	.	.	.	4E/	.	.	.
=80-	=80-	=80-	=80-	=80-	=80-	=80-	=80-
!	!	!LO:TX:t=P:problem=kreska pseudotaktowa	!	!	!	!LO:TX:t=P:problem=kreska pseudotaktowa	!
2BB-/	.	1d\	-ſe-	2F/	-bis;	1B-/	-bis;
!LO:TX:t=P:problem=kreska pseudotaktowa	!	!	!	!	!	!	!
*	*	*	*	*	*ij	*	*
2GG/	-bis,	.	.	2B-/	mi-	.	.
*	*ij	*	*	*	*	*	*
2.C/	mi-	0c\	-re-	2A/	-ſe-	1r	.
.	.	.	.	1G/	-re-	.	.
4BB-/	-ſe-	.	.	.	.	.	.
=81-	=81-	=81-	=81-	=81-	=81-	=81-	=81-
!LO:TX:t=P:problem=kreska pseudotaktowa	!	!	!	!	!	!	!
1AA/	-re-	.	.	.	.	0r	.
!	!	!	!	!LO:TX:t=P:problem=kreska pseudotaktowa	!	!	!
.	.	.	.	2F/	.	.	.
2GG/	-re	0B-\	-re	2G/	-re	.	.
2.G\	no-	.	.	2.B-/	no-	.	.
=82-	=82-	=82-	=82-	=82-	=82-	=82-	=82-
!	!	!	!	!	!	!LO:TX:t=P:problem=kreska pseudotaktowa	!
.	.	.	.	.	.	2r	.
4F\	.	.	.	4A/	.	.	.
4E\	.	.	.	4G/	.	2g\	qui
!	!	!	!	!LO:TX:t=P:problem=kreska pseudotaktowa	!	!	!
4D\	.	.	.	4F/	.	.	.
*	*	*custos:d	*	*	*	*	*
!LO:TX:t=P:problem=kreska pseudotaktowa	!	!LO:TX:t=P:problem=kreska pseudotaktowa	!	!	!	!	!
1E\	-bis	1c\	no-	1G/	.	2g\	.
*	*Xij	*	*	*	*	*	*
!	!	!	!	!	!	!LO:TX:t=P:problem=kreska pseudotaktowa	!
.	.	.	.	.	.	2g\	tol-
!	!	!LO:LB:g=original	!	!	!	!	!
=83-	=83-	=83-	=83-	=83-	=83-	=83-	=83-
*custos:D	*	*	*	*custos:c	*	*	*
!	!	!LO:TX:t=P:problem=kreska pseudotaktowa	!	!	!	!	!
2r	.	0d\	-bis,	2B-/	.	1f\	-lis
!LO:LB:g=original	!	!	!	!LO:LB:g=original	!	!	!
!LO:TX:t=P:problem=kreska pseudotaktowa	!	!	!	!LO:TX:t=P:problem=kreska pseudotaktowa	!	!	!
2D/	qui	.	.	2A/	-bis	.	.
*	*	*	*	*	*Xij	*	*
2D/	.	.	.	2r	.	1f\	pec-
!LO:TX:t=P:problem=kreska pseudotaktowa	!	!	!	!	!	!	!
2D/	tol-	.	.	2A/	qui	.	.
=84-	=84-	=84-	=84-	=84-	=84-	=84-	=84-
1.C/	-lis	00r	.	2A/	.	1.e\	-ca-
!	!	!	!	!LO:TX:t=P:problem=kreska pseudotaktowa	!	!	!
.	.	.	.	2A/	tol-	.	.
.	.	.	.	1.G/	-lis	.	.
!LO:TX:t=P:problem=kreska pseudotaktowa	!	!	!	!	!	!LO:TX:t=P:problem=kreska pseudotaktowa	!
2BB-/	pec-	.	.	.	.	2d\	-ta
=85-	=85-	=85-	=85-	=85-	=85-	=85-	=85-
2C/	-ca-	.	.	.	.	2e\	.
2D/	-ta	.	.	2F/	pec-	1d\	mun-
2E/	.	.	.	2G/	-ca-	.	.
!	!	!	!	!LO:TX:t=P:problem=kreska pseudotaktowa	!	!	!
2.F\	mun-	.	.	[y2A/	-ta	4c/	.
!	!	!	!	!	!	!LO:TX:t=P:problem=kreska pseudotaktowa	!
.	.	.	.	.	.	4B-/	.
=86-	=86-	=86-	=86-	=86-	=86-	=86-	=86-
!	!	!	!	!LO:N:xstem:cue	!	!	!
.	.	0r	.	4A/]	.	2c/	.
4E\	.	.	.	4G/	.	.	.
!LO:TX:t=P:problem=kreska pseudotaktowa	!	!	!	!	!	!	!
2D/	.	.	.	1F/	mun-	1B-/	.
1C/	.	.	.	.	.	.	.
!	!	!	!	!LO:TX:t=P:problem=kreska pseudotaktowa	!	!	!
.	.	.	.	2E/	.	2A/	.
=87-	=87-	=87-	=87-	=87-	=87-	=87-	=87-
*	*	*	*	*	*	*custos:f	*
!LO:TX:t=P:problem=kreska pseudotaktowa	!	!LO:TX:t=P:problem=kreska pseudotaktowa	!	!LO:TX:t=P:problem=kreska pseudotaktowa	!	!LO:TX:t=P:problem=kreska pseudotaktowa	!
00BB-/	-di,	1.d\	Su-	0F/	-di,	1B-/	-di;
!	!	!	!	!	!	!LO:PB:g=original	!
.	.	.	.	.	.	1.f\	su-
!	!	!LO:TX:t=P:problem=kreska pseudotaktowa	!	!	!	!	!
.	.	2d\	-ſci-	.	.	.	.
=88-	=88-	=88-	=88-	=88-	=88-	=88-	=88-
.	.	0d\	-pe	1.B-\	Su-	.	.
.	.	.	.	.	.	2f\	-ſci-
!	!	!	!	!	!	!LO:TX:t=P:problem=kreska pseudotaktowa	!
.	.	.	.	.	.	0f\	-pe;
.	.	.	.	2B-\	-ſci-	.	.
=89-	=89-	=89-	=89-	=89-	=89-	=89-	=89-
!	!	!	!	!LO:TX:t=P:problem=kreska pseudotaktowa	!	!	!
1.F\	Su-	1.c\	de-	1A\	-pe	.	.
.	.	.	.	2A/	de-	2r	.
!LO:TX:t=P:problem=kreska pseudotaktowa	!	!LO:TX:t=P:problem=kreska pseudotaktowa	!	!LO:TX:t=P:problem=kreska pseudotaktowa	!	!LO:TX:t=P:problem=kreska pseudotaktowa	!
2F\	-ſci-	2c\	-pre-	2A/	-pre-	2f\	de-
=90-	=90-	=90-	=90-	=90-	=90-	=90-	=90-
*	*	*	*	*custos:A	*	*	*
2C/	-pe-	2c\	-ca-	2G/	-ca-	2e\	-pre-
!	!	!	!	!LO:PB:g=original	!	!	!
2.F\	.	2c\	-ci-	2.A/	-ci-	1f\	-ca-
.	.	1c\	-o-	.	.	.	.
4E\	-de-	.	.	4G/	.	.	.
!LO:TX:t=P:problem=kreska pseudotaktowa	!	!	!	!	!	!LO:TX:t=P:problem=kreska pseudotaktowa	!
2C/	-pre-	.	.	1G/	.	2e\	-ti-
=91-	=91-	=91-	=91-	=91-	=91-	=91-	=91-
!LO:TX:t=P:problem=przeróbka rytmu, zmiany wartości nut i dopisanie nuty brakującej	!	!LO:TX:t=P:problem=kreska pseudotaktowa	!	!	!	!	!
2.D/	-ca-	1B-\	-ne(m)	.	.	2d/	-o-
!	!	!	!	!LO:TX:t=P:problem=kreska pseudotaktowa	!	!	!
.	.	.	.	2F/	-o-	2f\	-nem
!LO:TX:t=P:problem=kreska pseudotaktowa	!	!	!	!	!	!	!
4C/	-ci-	.	.	.	.	.	.
*custos:E	*	*	*	*	*	*	*
2C/	.	1c\	n(os-	2.G/	-nem	2e\	.
!LO:PB:g=original	!	!	!	!	!	!LO:TX:t=P:problem=kreska pseudotaktowa	!
2.E/	-o-	.	.	.	.	[y2g\	.
.	.	.	.	4A/	.	.	.
=92-	=92-	=92-	=92-	=92-	=92-	=92-	=92-
!	!	!LO:TX:t=P:problem=kreska pseudotaktowa	!	!	!	!LO:N:xstem:cue	!
!	!	!LO:TX:a:t=6	!	!	!	!	!
.	.	00.G/	-t)ram,	4B-/	.	4g\]	.
4D/	-ne(m)	.	.	4c\	.	4f\	no-
!LO:TX:t=P:problem=kreska pseudotaktowa	!	!	!	!	!	!LO:TX:t=P:problem=kreska pseudotaktowa	!
2BB-/	.	.	.	2.d\	.	2d/	.
1C/	n(ost)-	.	.	.	.	1e\	.
.	.	.	.	4c\	.	.	.
.	.	.	.	1c\	.	.	.
=93-	=93-	=93-	=93-	=93-	=93-	=93-	=93-
!LO:TX:t=P:problem=kreska pseudotaktowa	!	!	!	!	!	!LO:TX:t=P:problem=kreska pseudotaktowa	!
0GG/	-ram,	.	.	.	.	1d\	-ſtra(m);
.	.	.	.	4B-/	noſ-	.	.
!	!	!	!	!LO:TX:t=P:problem=kreska pseudotaktowa	!	!	!
.	.	.	.	4A/	.	.	.
.	.	.	.	1B-\	-tram,	2r	.
!	!	!	!	!	!	!LO:TX:t=P:problem=kreska pseudotaktowa	!
.	.	.	.	.	.	2d/	qui
=94-	=94-	=94-	=94-	=94-	=94-	=94-	=94-
*	*	*	*	*	*	*custos:G	*
0r	.	.	.	2r	.	2d/	ſe-
!	!	!	!	!	!	!LO:LB:g=original	!
!	!	!	!	!LO:TX:t=P:problem=kreska pseudotaktowa	!	!LO:TX:t=P:problem=kreska pseudotaktowa	!
.	.	.	.	2d\	qui	2G/	-des
.	.	.	.	2d\	.	2.B-/	ad
.	.	.	.	2G/	ſe-	.	.
.	.	.	.	.	.	4c/	.
=95-	=95-	=95-	=95-	=95-	=95-	=95-	=95-
2r	.	00r	.	2.B-/	-des	4d\	.
.	.	.	.	.	.	4e\	.
!LO:TX:t=P:problem=kreska pseudotaktowa	!	!	!	!	!	!LO:TX:t=P:problem=kreska pseudotaktowa	!
2G\	qui	.	.	.	.	[y2d\	dex-
!	!	!	!	!LO:TX:t=P:problem=kreska pseudotaktowa	!	!	!
.	.	.	.	4c\	ad	.	.
*	*	*	*	*custos:e	*	*	*
!	!	!	!	!	!	!LO:N:xstem:cue	!
2G\	ſe-	.	.	2d\	.	4d\]	.
.	.	.	.	.	.	4B-/	.
!	!	!	!	!LO:LB:g=original	!	!	!
!	!	!	!	!	!	!LO:TX:t=P:problem=kreska pseudotaktowa	!
2C/	-des	.	.	2.e\	dex-	2c/	-te-
=96-	=96-	=96-	=96-	=96-	=96-	=96-	=96-
2.E-X/	ad-	.	.	.	.	2G/	-ra(m)
.	.	.	.	4d\	.	.	.
.	.	.	.	1c\	-te-	2.g\	.
!LO:TX:t=P:problem=kreska pseudotaktowa	!	!	!	!	!	!	!
4F\	.	.	.	.	.	.	.
2G\	-dex-	.	.	.	.	.	.
.	.	.	.	.	.	4f\	pa-
!	!	!	!	!	!	!LO:TX:t=P:problem=kreska pseudotaktowa	!
2G\	-te-	.	.	1B-\	-ram	2d\	.
=97-	=97-	=97-	=97-	=97-	=97-	=97-	=97-
!LO:TX:t=P:problem=kreska pseudotaktowa	!	!	!	!	!	!	!
1F\	-te-	1.c\	Qui	.	.	1f\	.
!	!	!	!	!LO:TX:t=P:problem=kreska pseudotaktowa	!	!	!
.	.	.	.	2A/	.	.	.
2C/	-ra(m)	.	.	2G/	.	2e\	.
!	!	!LO:TX:t=P:problem=kreska pseudotaktowa	!	!	!	!LO:TX:t=P:problem=kreska pseudotaktowa	!
1F\	pa-	2c\	ſe-	1A\	.	2c/	.
=98-	=98-	=98-	=98-	=98-	=98-	=98-	=98-
.	.	2c\	-des	.	.	1f\	.
!	!	!LO:TX:t=P:problem=kreska pseudotaktowa	!	!	!	!	!
4Eny/	.	2c\	ad	4G/	pa-	.	.
!LO:TX:t=P:problem=kreska pseudotaktowa	!	!	!	!LO:TX:t=P:problem=kreska pseudotaktowa	!	!	!
4D/	.	.	.	4F/	.	.	.
*	*	*custos:c	*	*	*	*	*
!	!	!	!	!	!	!LO:TX:t=P:problem=kreska pseudotaktowa	!
1C/	.	2c\	dex-	2G/	.	1e\	-tris;
!	!	!LO:LB:g=original	!	!	!	!	!
.	.	2c\	-te-	2A/	.	.	.
=99-	=99-	=99-	=99-	=99-	=99-	=99-	=99-
!	!	!LO:TX:t=P:problem=kreska pseudotaktowa	!	!LO:TX:t=P:problem=kreska pseudotaktowa	!	!	!
2BB-/	-tris	0d\	-ra(m)	0B-\	-tris;	2r	.
!LO:TX:t=P:problem=kreska pseudotaktowa	!	!	!	!	!	!LO:TX:t=P:problem=kreska pseudotaktowa	!
2B-\	mi-	.	.	.	.	2f\	mi-
*custos:B-	*	*	*	*	*	*	*
2G\	-ſe-	.	.	.	.	2g\	-ſe-
*	*	*	*	*	*	*custos:e	*
!LO:LB:g=original	!	!	!	!	!	!	!
!LO:TX:t=P:problem=kreska pseudotaktowa	!	!	!	!	!	!	!
2B-\	-re-	.	.	.	.	1f\	-re-
=100-	=100-	=100-	=100-	=100-	=100-	=100-	=100-
1A\	-re	1c\	p(at)-	1r	.	.	.
!	!	!	!	!	!	!LO:LB:g=original	!
.	.	.	.	.	.	1e\	-re
!	!	!LO:TX:t=P:problem=kreska pseudotaktowa	!	!	!	!	!
2.G\	no-	1B-\	-rus;	2r	.	.	.
!	!	!	!	!LO:TX:t=P:problem=kreska pseudotaktowa	!	!LO:TX:t=P:problem=kreska pseudotaktowa	!
.	.	.	.	2B-\	mi-	[y2d/	.
!LO:TX:t=P:problem=kreska pseudotaktowa	!	!	!	!	!	!	!
4F\	.	.	.	.	.	.	.
=101-	=101-	=101-	=101-	=101-	=101-	=101-	=101-
!	!	!	!	!	!	!LO:N:xstem:cue	!
2E\	.	1r	.	2G/	-ſe-	4d/]	.
.	.	.	.	.	.	4c/	no-
!	!	!	!	!	!	!LO:TX:t=P:problem=kreska pseudotaktowa	!
2F\	.	.	.	2A/	-re-	2c/	.
1D\	-bis,	1B-\	mi-	1F/	-re	2d\	.
.	.	.	.	.	.	1f\	.
=102-	=102-	=102-	=102-	=102-	=102-	=102-	=102-
!LO:TX:t=P:problem=kreska pseudotaktowa	!	!	!	!LO:TX:t=P:problem=kreska pseudotaktowa	!	!	!
1C/	.	1.c\	-ſe-	0G/	no-	.	.
.	.	.	.	.	.	4e\	.
!	!	!	!	!	!	!LO:TX:t=P:problem=kreska pseudotaktowa	!
.	.	.	.	.	.	4d\	.
2r	.	.	.	.	.	4e\	.
.	.	.	.	.	.	4f\	.
!	!	!LO:TX:t=P:problem=kreska pseudotaktowa	!	!	!	!	!
2GG/	Quo-	2B-\	-re-	.	.	2.e\	.
=103-	=103-	=103-	=103-	=103-	=103-	=103-	=103-
*	*	*	*	*custos:G	*	*	*
1D\	-ni-	1A\	-re	1F/	-bis;	.	.
.	.	.	.	.	.	4d\	.
.	.	.	.	.	.	1d\	.
!LO:TX:t=P:problem=kreska pseudotaktowa	!	!	!	!	!	!	!
1E\	-a(m)	1G/	no-	2r	.	.	.
!	!	!	!	!LO:LB:g=original	!	!	!
!	!	!	!	!LO:TX:t=P:problem=kreska pseudotaktowa	!	!LO:TX:t=P:problem=kreska pseudotaktowa	!
.	.	.	.	2G/	Quo-	2c/	-bis,
=104-	=104-	=104-	=104-	=104-	=104-	=104-	=104-
!	!	!LO:TX:t=P:problem=kreska pseudotaktowa	!	!	!	!LO:TX:t=P:problem=kreska pseudotaktowa	!
2D/	tu	0F/	-bis,	2A/	 -	1d\	.
4BB-/	ſo-	.	.	1B-\	-ni-	.	.
!LO:TX:t=P:problem=kreska pseudotaktowa	!	!	!	!	!	!	!
4C/	.	.	.	.	.	.	.
4D/	.	.	.	.	.	2r	.
4E/	.	.	.	.	.	.	.
!LO:TX:t=P:problem=kreska pseudotaktowa	!	!	!	!LO:TX:t=P:problem=kreska pseudotaktowa	!	!LO:TX:t=P:problem=kreska pseudotaktowa	!
2F\	-lus	.	.	2A/	-am	2c/	Quo-
=105-	=105-	=105-	=105-	=105-	=105-	=105-	=105-
2BB-/	ſ(an)-	0r	.	2G/	tu	2d/	-ni-
2D/	-ctus	.	.	2F/	ſo-	1f\	-a(m)
*custos:F	*	*	*	*	*	*	*
!LO:TX:t=P:problem=kreska pseudotaktowa	!	!	!	!	!	!	!
1C/	tu	.	.	1G/	-lus	.	.
!	!	!	!	!	!	!LO:TX:t=P:problem=kreska pseudotaktowa	!
.	.	.	.	.	.	2e\	tu
!LO:LB:g=original	!	!	!	!	!	!	!
=106-	=106-	=106-	=106-	=106-	=106-	=106-	=106-
!	!	!LO:TX:t=P:problem=kreska pseudotaktowa	!	!LO:TX:t=P:problem=kreska pseudotaktowa	!	!	!
2.F\	ſo-	1r	.	1A\	.	2d/	so-
*	*	*	*	*	*	*custos:d	*
!	!	!	!	!	!	!LO:TX:t=P:problem=kreska pseudotaktowa	!
.	.	.	.	.	.	2c/	-l(us)
!LO:TX:t=P:problem=kreska pseudotaktowa	!	!	!	!	!	!	!
4E/	-lus	.	.	.	.	.	.
!	!	!	!	!	!	!LO:LB:g=original	!
!	!	!	!	!	!	!LO:TX:t=P:problem=kreska pseudotaktowa	!
1D\	.	1B-\	tu	1F/	ſan-	1d\	ſan-
=107-	=107-	=107-	=107-	=107-	=107-	=107-	=107-
!LO:TX:t=P:problem=kreska pseudotaktowa	!	!	!	!LO:TX:t=P:problem=kreska pseudotaktowa	!	!	!
1C/	do-	1.c\	ſo-	0G/	-ctus,	2e,\	-ctus,
!	!	!	!	!	!	!LO:TX:t=P:problem=kreska pseudotaktowa	!
.	.	.	.	.	.	2g\	tu
1E-X\	-mi-	.	.	.	.	2g\	ſo-
!	!	!LO:TX:t=P:problem=kreska pseudotaktowa	!	!	!	!LO:TX:t=P:problem=kreska pseudotaktowa	!
.	.	2B-\	-lus	.	.	2g\	-lus
=108-	=108-	=108-	=108-	=108-	=108-	=108-	=108-
1F\	-nus,	1A\	do-	2r	.	1f\	d(o-
.	.	.	.	2c\	tu	.	.
!LO:TX:t=P:problem=kreska pseudotaktowa	!	!	!	!	!	!	!
1C/	tu	1G/	-mi-	2c\	ſo-	1e\	-mi)-
!	!	!	!	!LO:TX:t=P:problem=kreska pseudotaktowa	!	!	!
.	.	.	.	2c\	-los	.	.
=109-	=109-	=109-	=109-	=109-	=109-	=109-	=109-
!	!	!LO:TX:t=P:problem=kreska pseudotaktowa	!	!	!	!LO:TX:t=P:problem=kreska pseudotaktowa	!
2.D/	.	1F/	-(nus),	2B-\	Do-	0d\	-n(us),
.	.	.	.	4A/	.	.	.
4Eny\	ſo-	.	.	4G/	-mi-	.	.
2F\	-lus	0r	.	2A/	-nus;	.	.
!LO:TX:t=P:problem=kreska pseudotaktowa	!	!	!	!LO:TX:t=P:problem=kreska pseudotaktowa	!	!	!
[y2G\	al-	.	.	2.B-\	.	.	.
=110-	=110-	=110-	=110-	=110-	=110-	=110-	=110-
!LO:N:xstem:cue	!	!	!	!	!	!	!
4G\]	.	.	.	.	.	2r	.
*	*	*	*	*custos:d	*	*	*
4F\	.	.	.	4c\	tu	.	.
!	!	!	!	!LO:LB:g=original	!	!	!
4E\	.	.	.	1d\	ſo-	2g,\	tu
!LO:TX:t=P:problem=kreska pseudotaktowa	!	!	!	!	!	!	!
4D/	.	.	.	.	.	.	.
*	*	*custos:A	*	*	*	*	*
1E\	.	1G/	tu	.	.	2g\	ſo-
!	!	!	!	!LO:TX:t=P:problem=kreska pseudotaktowa	!	!LO:TX:t=P:problem=kreska pseudotaktowa	!
.	.	.	.	2c\	-lus	2g\	-lus
!	!	!LO:LB:g=original	!	!	!	!	!
=111-	=111-	=111-	=111-	=111-	=111-	=111-	=111-
2D/	.	1A\	ſo-	2d\	al-	2.f\	.
!	!	!	!	!LO:TX:t=P:problem=kreska pseudotaktowa	!	!	!
2F\	.	.	.	2c\	-tiſ-	.	.
!	!	!	!	!	!	!LO:TX:t=P:problem=kreska pseudotaktowa	!
.	.	.	.	.	.	4e\	al-
2F/	.	2A/	-lus	2.c\	-si-	4c/	-ti-
.	.	.	.	.	.	4d/	.
!LO:TX:t=P:problem=kreska pseudotaktowa	!	!LO:TX:t=P:problem=kreska pseudotaktowa	!	!	!	!	!
2C/	-tiſ-	2G/	al-	.	.	2.e\	.
.	.	.	.	4B-\	.	.	.
=112-	=112-	=112-	=112-	=112-	=112-	=112-	=112-
!	!	!	!	!LO:TX:t=P:problem=kreska pseudotaktowa	!	!	!
1D\	-si-	1F/	-tiſ-	0A\	-mus;	.	.
.	.	.	.	.	.	4d\	.
.	.	.	.	.	.	1d\	.
*custos:A	*	*	*	*	*	*	*
!LO:TX:t=P:problem=kreska pseudotaktowa	!	!	!	!	!	!	!
1AA/	-mus,	1E/	-si-	.	.	.	.
*	*	*	*	*	*	*custos:d	*
!	!	!	!	!	!	!LO:TX:t=P:problem=kreska pseudotaktowa	!
.	.	.	.	.	.	2c/	-ſsi-
!LO:LB:g=original	!	!	!	!	!	!LO:PB:g=original	!
=113-	=113-	=113-	=113-	=113-	=113-	=113-	=113-
!	!	!LO:TX:t=P:problem=kreska pseudotaktowa	!	!	!	!LO:TX:t=P:problem=kreska pseudotaktowa	!
0A\	Ie-	0D/	-mus	1F/	.	0d\	-mus;
.	.	.	.	0f\	Ie-	.	.
=114-	=114-	=114-	=114-	=114-	=114-	=114-	=114-
!LO:TX:t=P:problem=kreska pseudotaktowa	!	!	!	!	!	!	!
1B-\	-ſu-	1d\	.	.	.	1r	.
!	!	!	!	!LO:TX:t=P:problem=kreska pseudotaktowa	!	!	!
1A\	-Chri-	1.c\	Ie-	1c\	-ſu	1e\	Ie-
=115-	=115-	=115-	=115-	=115-	=115-	=115-	=115-
!	!	!	!	!	!	!LO:TX:t=P:problem=kreska pseudotaktowa	!
0G\	.	.	.	0d\	Chri-	1g\	-ſu
.	.	4B-\	-ſu	.	.	.	.
!	!	!LO:TX:t=P:problem=kreska pseudotaktowa	!	!	!	!	!
.	.	4A/	.	.	.	.	.
.	.	1B-\	Chri-	.	.	1g\	Chri-
=116-	=116-	=116-	=116-	=116-	=116-	=116-	=116-
!LO:TX:t=P:problem=kreska pseudotaktowa	!	!LO:TX:t=P:problem=kreska pseudotaktowa	!	!	!	!LO:TX:t=P:problem=kreska pseudotaktowa	!
0.D\	-ſte,	0.A\	-ſte:	0d\	-ſte;	1f\	-ſte,
.	.	.	.	.	.	2r	.
.	.	.	.	.	.	2f\	cum
=117-	=117-	=117-	=117-	=117-	=117-	=117-	=117-
.	.	.	.	2r	.	2f\	.
!	!	!	!	!LO:TX:t=P:problem=kreska pseudotaktowa	!	!LO:TX:t=P:problem=kreska pseudotaktowa	!
.	.	.	.	2d\	cum	2f\	ſan-
1G\	.	1B-\	cu(m)	2d\	.	1.g\	.
.	.	.	.	2d\	ſan-	.	.
=118-	=118-	=118-	=118-	=118-	=118-	=118-	=118-
!LO:TX:t=P:problem=kreska pseudotaktowa	!	!	!	!	!	!	!
1C/	.	1.c\	ſ(an)-	2.e\	-cto	.	.
!	!	!	!	!	!	!LO:TX:t=P:problem=kreska pseudotaktowa	!
.	.	.	.	.	.	2f\	-cto
!	!	!	!	!LO:TX:t=P:problem=kreska pseudotaktowa	!	!	!
.	.	.	.	4d\	.	.	.
*	*	*	*	*custos:d	*	*	*
0r	.	.	.	2c\	ſpi-	2e\	ſpi-
!	!	!	!	!LO:PB:g=original	!	!	!
!	!	!LO:TX:t=P:problem=kreska pseudotaktowa	!	!	!	!	!
.	.	2B-\	-cto	2.d\	.	2.f\	-ri-
=119-	=119-	=119-	=119-	=119-	=119-	=119-	=119-
.	.	1A\	ſp(i-	.	.	.	.
.	.	.	.	4c\	.	4e\	-tu
!	!	!	!	!LO:TX:t=P:problem=kreska pseudotaktowa	!	!LO:TX:t=P:problem=kreska pseudotaktowa	!
*	*	*	*	*	*	*	*ij
.	.	.	.	2c\	.	2c/	cum
2r	.	0G/	-ri-	2B-/	.	2d/	.
!LO:TX:t=P:problem=kreska pseudotaktowa	!	!	!	!	!	!	!
2C/	Cum	.	.	2.c\	.	2.e\	ſan-
=120-	=120-	=120-	=120-	=120-	=120-	=120-	=120-
2C/	ſ(an)-	.	.	.	.	.	.
.	.	.	.	4d\	.	4d/	.
!	!	!	!	!LO:TX:t=P:problem=kreska pseudotaktowa	!	!	!
2C/	-cto	.	.	2.e\	.	4c/	-cto
*	*	*	*	*	*	*custos:A	*
.	.	.	.	.	.	4B-/	.
!	!	!	!	!	!	!LO:LB:g=original	!
!LO:TX:t=P:problem=kreska pseudotaktowa	!	!LO:TX:t=P:problem=kreska pseudotaktowa	!	!	!	!	!
1D\	ſp(i-	1F/	-t)u,	.	.	2A/	ſpi-
.	.	.	.	4d\	.	.	.
!	!	!	!	!	!	!LO:TX:t=P:problem=kreska pseudotaktowa	!
.	.	.	.	1d\	-ri-	2B-/	.
=121-	=121-	=121-	=121-	=121-	=121-	=121-	=121-
*	*	*custos:B-	*	*	*	*	*
1E-X\	-ri-	1r	.	.	.	1G/	-ri-
.	.	.	.	2c\	-tu;	.	.
!	!	!LO:LB:g=original	!	!	!	!	!
!LO:TX:t=P:problem=kreska pseudotaktowa	!	!	!	!LO:TX:t=P:problem=kreska pseudotaktowa	!	!	!
1BB-/	-t)u	1B-\	in	1d\	.	2F/	-tu
*	*	*	*	*	*	*	*Xij
!	!	!	!	!	!	!LO:TX:t=P:problem=kreska pseudotaktowa	!
.	.	.	.	.	.	2f\	in
=122-	=122-	=122-	=122-	=122-	=122-	=122-	=122-
1Eny\	in	2B-/	glo-	2r	.	1.g\	glo-
!	!	!LO:TX:t=P:problem=kreska pseudotaktowa	!	!	!	!	!
.	.	2B-/	-ri-	2G/	in	.	.
2.C/	glo-	1.c\	-a	2G/	glo-	.	.
!	!	!	!	!LO:TX:t=P:problem=kreska pseudotaktowa	!	!LO:TX:t=P:problem=kreska pseudotaktowa	!
.	.	.	.	2G/	-ri-	2f\	-ri-
!LO:TX:t=P:problem=kreska pseudotaktowa	!	!	!	!	!	!	!
4C/	-ri-	.	.	.	.	.	.
=123-	=123-	=123-	=123-	=123-	=123-	=123-	=123-
!	!	!	!	!	!	!LO:TX:t=P:problem=kreska pseudotaktowa	!
2C/	-a	.	.	2A/	   a	1e\	-a
*custos:D	*	*	*	*	*	*	*
!LO:TX:t=P:problem=kreska pseudotaktowa	!	!LO:TX:t=P:problem=kreska pseudotaktowa	!	!	!	!	!
2C/	de-	2B-/	De-	1G/	De-	.	.
!LO:PB:g=original	!	!	!	!	!	!	!
1D\	-i	1A\	-i	.	.	1d\	De-
!	!	!	!	!LO:TX:t=P:problem=kreska pseudotaktowa	!	!	!
.	.	.	.	2F/	-i	.	.
=124-	=124-	=124-	=124-	=124-	=124-	=124-	=124-
*	*	*	*	*custos:B-	*	*	*
!LO:TX:t=P:problem=kreska pseudotaktowa	!	!	!	!	!	!	!
1GG/	pa-	1G/	p(at)-	2G/	pa-	2.B-/	-i
!	!	!	!	!LO:LB:g=original	!	!	!
.	.	.	.	2.B-\	.	.	.
!	!	!	!	!	!	!LO:TX:t=P:problem=kreska pseudotaktowa	!
.	.	.	.	.	.	4c/	.
!	!	!LO:TX:t=P:problem=kreska pseudotaktowa	!	!	!	!	!
2.BB-/	.	0F/	-ris	.	.	4d\	.
.	.	.	.	4c\	.	4e\	.
!	!	!	!	!LO:TX:t=P:problem=kreska pseudotaktowa	!	!	!
.	.	.	.	2.d\	.	1f\	.
4C/	.	.	.	.	.	.	.
=125-	=125-	=125-	=125-	=125-	=125-	=125-	=125-
2.D/	.	.	.	.	.	.	.
.	.	.	.	4c\	.	.	.
!	!	!	!	!	!	!LO:TX:t=P:problem=kreska pseudotaktowa	!
.	.	.	.	4A\	.	2d\	pa-
!LO:TX:t=P:problem=kreska pseudotaktowa	!	!	!	!LO:TX:t=P:problem=kreska pseudotaktowa	!	!	!
4C/	.	.	.	4B-\	.	.	.
2AA/	-tris	1.A\	A-	4c\	.	2e\	.
.	.	.	.	4B-\	.	.	.
1D\	A-	.	.	4A/	.	2f\	.
!	!	!	!	!LO:TX:t=P:problem=kreska pseudotaktowa	!	!	!
.	.	.	.	4G/	.	.	.
=126-	=126-	=126-	=126-	=126-	=126-	=126-	=126-
!	!	!	!	!	!	!LO:TX:t=P:problem=kreska pseudotaktowa	!
.	.	.	.	2F/	.	1d\	.
!LO:TX:t=P:problem=kreska pseudotaktowa	!	!	!	!	!	!	!
2BB-/	.	2B-\	.	1G/	-tris,	.	.
2C/	.	1A\	.	.	.	2e\	.
*	*	*	*	*	*	*custos:B-	*
!	!	!	!	!LO:TX:t=P:problem=kreska pseudotaktowa	!	!	!
2D/	.	.	.	2F/	A-	1d\	.
!	!	!	!	!	!	!LO:LB:g=original	!
=127-	=127-	=127-	=127-	=127-	=127-	=127-	=127-
!LO:TX:t=P:problem=kreska pseudotaktowa	!	!	!	!	!	!	!
1GG/	.	00.Gl/;	-men:	2G/	.	.	.
!	!	!	!	!LO:TX:t=P:problem=kreska pseudotaktowa	!	!LO:TX:t=P:problem=kreska pseudotaktowa	!
.	.	.	.	2D/	.	2B-/	-tris
1.C/	.	.	.	1E-X/	.	2.c/	A-
.	.	.	.	.	.	4d\	.
=128-	=128-	=128-	=128-	=128-	=128-	=128-	=128-
.	.	.	.	2C/	.	2e\	.
!	!	!	!	!LO:TX:t=P:problem=kreska pseudotaktowa	!	!LO:TX:t=P:problem=kreska pseudotaktowa	!
2BB-/	.	.	.	2D/	.	[y2d\	.
!	!	!	!	!	!	!LO:N:xstem:cue	!
1C/	.	.	.	1Eny/	.	4d\]	.
.	.	.	.	.	.	4c/	.
.	.	.	.	.	.	1c\	.
=129-	=129-	=129-	=129-	=129-	=129-	=129-	=129-
0GGl/;	-men:	.	.	0Dl/	-men	.	.
.	.	.	.	.	.	4B-/	.
.	.	.	.	.	.	4A/	.
.	.	.	.	.	.	1B-l/	-men
==	==	==	==	==	==	==	==
*-	*-	*-	*-	*-	*-	*-	*-
!!!system-decoration: s1,s2,s3,s4
!!!RDF**kern: l = terminal long
!!!RDF**kern: > = above
!!!RDF**kern: < = below
!!!ENC: Mateusz Solarz
!!!END: 2022-02-08
!!!AIN: 3 empty 1 tenor
!!!ENC: Leszek Kubiak
!!!END: 2022-02-11
